svg/business/wallet_2_fill.svg

<?xml version="1.0" encoding="UTF-8"?>
<svg width="24px" height="24px" viewBox="0 0 24 24" version="1.1" xmlns="http://www.w3.org/2000/svg" xmlns:xlink="http://www.w3.org/1999/xlink">
    <title>wallet_2_fill</title>
    <g id="页面-1" stroke="none" stroke-width="1" fill="none" fill-rule="evenodd">
        <g id="Business" transform="translate(0.000000, -240.000000)">
            <g id="wallet_2_fill" transform="translate(0.000000, 240.000000)">
                <path d="M24,0 L24,24 L0,24 L0,0 L24,0 Z M12.5934901,23.257841 L12.5819402,23.2595131 L12.5108777,23.2950439 L12.4918791,23.2987469 L12.4918791,23.2987469 L12.4767152,23.2950439 L12.4056548,23.2595131 C12.3958229,23.2563662 12.3870493,23.2590235 12.3821421,23.2649074 L12.3780323,23.275831 L12.360941,23.7031097 L12.3658947,23.7234994 L12.3769048,23.7357139 L12.4804777,23.8096931 L12.4953491,23.8136134 L12.4953491,23.8136134 L12.5071152,23.8096931 L12.6106902,23.7357139 L12.6232938,23.7196733 L12.6232938,23.7196733 L12.6266527,23.7031097 L12.609561,23.275831 C12.6075724,23.2657013 12.6010112,23.2592993 12.5934901,23.257841 L12.5934901,23.257841 Z M12.8583906,23.1452862 L12.8445485,23.1473072 L12.6598443,23.2396597 L12.6498822,23.2499052 L12.6498822,23.2499052 L12.6471943,23.2611114 L12.6650943,23.6906389 L12.6699349,23.7034178 L12.6699349,23.7034178 L12.678386,23.7104931 L12.8793402,23.8032389 C12.8914285,23.8068999 12.9022333,23.8029875 12.9078286,23.7952264 L12.9118235,23.7811639 L12.8776777,23.1665331 C12.8752882,23.1545897 12.8674102,23.1470016 12.8583906,23.1452862 L12.8583906,23.1452862 Z M12.1430473,23.1473072 C12.1332178,23.1423925 12.1221763,23.1452606 12.1156365,23.1525954 L12.1099173,23.1665331 L12.0757714,23.7811639 C12.0751323,23.7926639 12.0828099,23.8018602 12.0926481,23.8045676 L12.108256,23.8032389 L12.3092106,23.7104931 L12.3186497,23.7024347 L12.3186497,23.7024347 L12.3225043,23.6906389 L12.340401,23.2611114 L12.337245,23.2485176 L12.337245,23.2485176 L12.3277531,23.2396597 L12.1430473,23.1473072 Z" id="MingCute" fill-rule="nonzero"></path>
                <path d="M15.6898,6.86101 C15.9324,6.69099 16.1589,6.49793 16.3534,6.28049 C16.7058,5.88646 17,5.35566 17,4.71429 C17,4.04809 16.6829,3.52606 16.2769,3.16069 C15.8909,2.81331 15.405,2.58422 14.9414,2.4276 C14.0099,2.11293 12.8922,2 12,2 C11.1078,2 9.99008,2.11293 9.05863,2.4276 C8.59502,2.58422 8.10909,2.81331 7.72307,3.16069 C7.31708,3.52606 7,4.04809 7,4.71429 C7,5.35566 7.29421,5.88646 7.64664,6.28049 C7.84111,6.49793 8.0676,6.69099 8.31022,6.86101 C5.32492,8.28367 3,11.3352 3,15 C3,17.5559 4.01982,19.3861 5.76623,20.5251 C7.44064,21.6171 9.6697,22 12,22 C14.3303,22 16.5594,21.6171 18.2338,20.5251 C19.9802,19.3861 21,17.5559 21,15 C21,11.3352 18.6751,8.28367 15.6898,6.86101 Z M9.06094,4.64734 C9.02032,4.68389 9.00465,4.70761 9.00002,4.71559 C9.00045,4.72633 9.00796,4.80249 9.13737,4.94719 C9.27759,5.10396 9.51178,5.28203 9.83863,5.45134 C10.4985,5.79318 11.3417,6 12,6 C12.6583,6 13.5015,5.79318 14.1614,5.45134 C14.4882,5.28203 14.7224,5.10396 14.8626,4.94719 C14.992,4.80249 14.9995,4.72633 15,4.71559 C14.9954,4.70761 14.9797,4.68389 14.9391,4.64734 C14.834,4.55276 14.6306,4.43364 14.3013,4.3224 C13.6469,4.10135 12.7647,4 12,4 C11.2353,4 10.3531,4.10135 9.69873,4.3224 C9.36944,4.43364 9.16603,4.55276 9.06094,4.64734 Z M11.3944,11.0528 C11.1474,10.5588 10.5468,10.3586 10.0528,10.6055 C9.55881,10.8525 9.35858,11.4532 9.60557,11.9472 L10.132,13 L10,13 C9.44772,13 9,13.4477 9,14 C9,14.5523 9.44772,15 10,15 L11,15 L11,15.5 L10,15.5 C9.44772,15.5 9,15.9477 9,16.5 C9,17.0523 9.44772,17.5 10,17.5 L11,17.5 L11,18 C11,18.5523 11.4477,19 12,19 C12.5523,19 13,18.5523 13,18 L13,17.5 L14,17.5 C14.5523,17.5 15,17.0523 15,16.5 C15,15.9477 14.5523,15.5 14,15.5 L13,15.5 L13,15 L14,15 C14.5523,15 15,14.5523 15,14 C15,13.4477 14.5523,13 14,13 L13.868,13 L14.3944,11.9472 C14.6414,11.4532 14.4412,10.8525 13.9472,10.6055 C13.4532,10.3586 12.8526,10.5588 12.6056,11.0528 L12,12.2639 L11.3944,11.0528 Z" id="形状" fill="#09244B"></path>
            </g>
        </g>
    </g>
</svg>

<svg xmlns="http://www.w3.org/2000/svg" width="24" height="24"><g fill="none" fill-rule="evenodd"><path d="M24 0v24H0V0zM12.593 23.258l-.011.002-.071.035-.02.004-.014-.004-.071-.035c-.01-.004-.019-.001-.024.005l-.004.01-.017.428.005.02.01.013.104.074.015.004.012-.004.104-.074.012-.016.004-.017-.017-.427c-.002-.01-.009-.017-.017-.018m.265-.113-.013.002-.185.093-.01.01-.003.011.018.43.005.012.008.007.201.093c.012.004.023 0 .029-.008l.004-.014-.034-.614c-.003-.012-.01-.02-.02-.022m-.715.002a.023.023 0 0 0-.027.006l-.006.014-.034.614c0 .012.007.02.017.024l.015-.002.201-.093.01-.008.004-.011.017-.43-.003-.012-.01-.01z"/><path fill="#09244B" d="M15.69 6.861c.242-.17.469-.363.663-.58.353-.395.647-.925.647-1.567 0-.666-.317-1.188-.723-1.553-.386-.348-.872-.577-1.336-.733C14.01 2.113 12.892 2 12 2c-.892 0-2.01.113-2.941.428-.464.156-.95.385-1.336.733C7.317 3.526 7 4.048 7 4.714c0 .642.294 1.172.647 1.566.194.218.42.411.663.581C5.325 8.284 3 11.335 3 15c0 2.556 1.02 4.386 2.766 5.525C7.441 21.617 9.67 22 12 22s4.56-.383 6.234-1.475C19.98 19.386 21 17.555 21 15c0-3.665-2.325-6.716-5.31-8.139M9.06 4.647a.31.31 0 0 0-.06.069c0 .01.008.086.137.231.14.157.375.335.702.504.66.342 1.503.549 2.161.549.658 0 1.502-.207 2.161-.549.327-.169.561-.347.702-.504.129-.145.136-.22.137-.231a.309.309 0 0 0-.06-.069c-.106-.094-.31-.213-.639-.325C13.647 4.102 12.765 4 12 4c-.765 0-1.647.101-2.301.322-.33.112-.533.23-.638.325m2.334 6.406a1 1 0 1 0-1.788.894L10.132 13H10a1 1 0 1 0 0 2h1v.5h-1a1 1 0 1 0 0 2h1v.5a1 1 0 1 0 2 0v-.5h1a1 1 0 1 0 0-2h-1V15h1a1 1 0 1 0 0-2h-.132l.526-1.053a1 1 0 1 0-1.788-.894L12 12.263z"/></g></svg>
